X:30
T:Old Hag, You Have Killed Me (Jig)
I:titlefont Times-Roman 24
I:partsfont Times-Roman 20
R: jig
M: 6/8
L:1/8
O:Trad. (4.11.2015/NS)
K:Dmix
"D"FDD cAA|ded "Am"cAG|"D"A2A BAG|"Am"A"<("">)"BA A2G|
"D"FDD cAA|ded cAF|"G"G3 GBA|1 G"<("">)"AG G2E:|2 G"<("">)"AG G2e||
|:"D"f2f "/E"g"<("">)"fg|"/F#"afd cAG|"D"A2A BAG|"Am"A"<("">)"BA A2e|
"D"f"<("">)"ef "/E"g"<("">)"fg|"/F#"afd cAF|"G"G2G GBA|1 G"<("">)"AG G2e:|2 G"<("">)"AG G2E||
%%vskip
%%begintext
|: FDD cAA | ded cAG | A2A BAG | ABA A2G |
FDD cAA | ded cAF | G3 GBA | GAG G2E :|
|: f2f gfg | afd cAG | A2A BAG | ABA A2e |
fef gfg | afd cAF | G2G GBA | GAG G2e :|
%%endtext
%%vskip
P:Dinny Delaney's
K:Dmix
"D"A2D ~D3 | A2G E2G %|A2D ~D3 |"C"G2A GED |"D"A2D ~D3 c2d e2d|"C"dcA AGE G2A GED:|
%|:"D"dcA AGE "C"c3 ABc|"D"dcA AGE "G"G2A GED|"D"dcA AGE "C"c2d e2d|dcA AGE G2A GED:|
%|:"D"A2D ~D3 "D"A2B "G"G2B|"D"A2B "G"G2A "C"E2E GED|"D"A2D ~D3 c2d e2d|"C"dcA AGE G2A GED:|
%|:dcA AGE c3 ABc|dcA AGE G2A GED|dcA AGE c2d e2d|dcA AGE G2A GED:|
%%vskip
%%begintext
|: D   | %   | %    | C    |
D      | %   | C    | %   :|
|: D   | C    | D    | G    |
D      | %   | C    | %   :|
3. kerralla A-osa:
|: D      | D  G  | D  G  | C      |
D         | %      | C       | %    :|
%%endtext
%%vskip
K:Edor
P:Morrison's
|:"Em"E2E B2B|EBE "D"AFD %|"Em"EDE B3|"D"dcB AFD|
%"Em"E2E B2B|EBE "D"AFD|"G"G3 FGA|"D"dAG FED:|
%"Em"Bee fee|bee "D"fee|"Em"Bee fee|"D"fag fed|
%"Em"Bee fee|bee "D"fee|"C"gfe d2A|"Bm"BAG FED|
%"Em"Bee fee|bee "D"fee|"Em"Bee fee|"D"faf def|
%"G"g3 gfe|def g2d|"D"edc d2A|"Bm"BAG FED||
%%vskip
%%begintext
|: Em   | Em  D    | Em    | D      |
Em      | Em  D    | G       | D     :|
|: Em   | Em  D    | Em    | D       |
Em      | Em  D    | C       | Hm   |
Em      | Em  D    | Em    | D       |
G         |  %          | D      | Hm   :|
%%endtext
%%vskip
%%vskip
%%vskip
%%vskip
W:Bothy Band: Old Hag You Have Killed Me

